svgs/solid/tachograph-digital.svg

<svg xmlns="http://www.w3.org/2000/svg" viewBox="0 0 640 512"><!-- Font Awesome Pro 6.0.0-alpha2 by @fontawesome - https://fontawesome.com License - https://fontawesome.com/license (Commercial License) --><path d="M576 64H64C28.801 64 0 92.799 0 128V384C0 419.199 28.801 448 64 448H576C611.199 448 640 419.199 640 384V128C640 92.799 611.199 64 576 64ZM64 296C64 291.625 67.625 288 72 288H88C92.375 288 96 291.625 96 296V312C96 316.375 92.375 320 88 320H72C67.625 320 64 316.375 64 312V296ZM336 384H80C71.199 384 64 376.799 64 368C64 359.199 71.199 352 80 352H336C344.801 352 352 359.199 352 368C352 376.799 344.801 384 336 384ZM128 312V296C128 291.625 131.625 288 136 288H152C156.375 288 160 291.625 160 296V312C160 316.375 156.375 320 152 320H136C131.625 320 128 316.375 128 312ZM192 312V296C192 291.625 195.625 288 200 288H216C220.375 288 224 291.625 224 296V312C224 316.375 220.375 320 216 320H200C195.625 320 192 316.375 192 312ZM256 312V296C256 291.625 259.625 288 264 288H280C284.375 288 288 291.625 288 296V312C288 316.375 284.375 320 280 320H264C259.625 320 256 316.375 256 312ZM352 312C352 316.375 348.375 320 344 320H328C323.625 320 320 316.375 320 312V296C320 291.625 323.625 288 328 288H344C348.375 288 352 291.625 352 296V312ZM352 237.713C352 247.857 344.4 256 334.934 256H81.066C71.6 256 64 247.857 64 237.713V146.285C64 136.143 71.6 128 81.066 128H334.934C344.4 128 352 136.143 352 146.285V237.713ZM560 384H400C391.199 384 384 376.799 384 368C384 359.199 391.199 352 400 352H560C568.801 352 576 359.199 576 368C576 376.799 568.801 384 560 384Z"/></svg>

<svg xmlns="http://www.w3.org/2000/svg" viewBox="0 0 640 512"><!--! Font Awesome Pro 6.0.0-alpha3 by @fontawesome - https://fontawesome.com License - https://fontawesome.com/license (Commercial License) --><path d="M576 64H64C28.8 64 0 92.8 0 128v256c0 35.2 28.8 64 64 64h512c35.2 0 64-28.8 64-64V128C640 92.8 611.2 64 576 64zM64 296C64 291.6 67.63 288 72 288h16C92.38 288 96 291.6 96 296v16C96 316.4 92.38 320 88 320h-16C67.63 320 64 316.4 64 312V296zM336 384h-256C71.2 384 64 376.8 64 368C64 359.2 71.2 352 79.1 352h256c8.801 0 16 7.199 16 16C352 376.8 344.8 384 336 384zM128 312v-16C128 291.6 131.6 288 136 288h16C156.4 288 160 291.6 160 296v16C160 316.4 156.4 320 152 320h-16C131.6 320 128 316.4 128 312zM192 312v-16C192 291.6 195.6 288 200 288h16C220.4 288 224 291.6 224 296v16C224 316.4 220.4 320 216 320h-16C195.6 320 192 316.4 192 312zM256 312v-16C256 291.6 259.6 288 264 288h16C284.4 288 288 291.6 288 296v16C288 316.4 284.4 320 280 320h-16C259.6 320 256 316.4 256 312zM352 312C352 316.4 348.4 320 344 320h-16C323.6 320 320 316.4 320 312v-16C320 291.6 323.6 288 328 288h16C348.4 288 352 291.6 352 296V312zM352 237.7C352 247.9 344.4 256 334.9 256H81.07C71.6 256 64 247.9 64 237.7V146.3C64 136.1 71.6 128 81.07 128h253.9C344.4 128 352 136.1 352 146.3V237.7zM560 384h-160c-8.801 0-16-7.201-16-16c0-8.801 7.199-16 16-16h160c8.801 0 16 7.199 16 16C576 376.8 568.8 384 560 384z"/></svg>
